X:1
T:Title
%%score { ( 1 3 ) | ( 2 4 ) }
L:1/8
M:6/8
K:Bb
V:1 treble nm="Grand Piano"
V:3 treble 
V:2 bass 
V:4 bass 
V:1
 z3 z2[Q:1/4=92] [DF] | [DF]2 [EG] [DF]2 [FB] | [Fd]2 [Ec] [DB]2 [FB] | z3 .c3 | %4
[M:5/8] [EG]3 [DF]2 |[M:1/8] [DF] |[M:3/4] [DF]2 [EG] [DF]2 [FB] | [Fd]2 [Ec] [DB]2 [DF] | %8
 G2 B F2 B |[M:5/8] c3 [DB]2 |[M:1/8] [FB] |[M:3/4] c2 cc Bc | d3 B2 [B,FB] | %13
 [B,GB]2 [C^FA] [B,GB]2 [B,EG] |[M:5/8] [B,DF]3 z2 |[M:1/8] [B,DF] | %16
[M:3/4] [A,EF]2 [A,EF][A,EF] [B,EG][CEA] | B4 z2 | F2 B d2 c |[M:5/8] [DB]-[DB]- [DB]3 |] %20
V:2
 z3 z2 [B,,B,] | [B,,B,]2 [B,,B,] [B,,B,]2 [D,B,] | [F,A,]2 [F,A,] [B,,F,]2 [D,B,] | %3
 [E,B,]2 [E,B,] [E,B,]2 [E,B,E] |[M:5/8] [B,,B,]3 [B,,B,]2 |[M:1/8] [B,,B,] | %6
[M:3/4] [B,,B,]2 [B,,B,] [B,,B,]2 [D,B,] | [F,A,]2 [F,A,] [B,,B,]2 [B,,B,] | %8
 [E,B,E]2 [G,B,E] [B,D]2 [F,B,D] |[M:5/8] [F,A,E]3 [B,,F,B,]2 |[M:1/8] [D,B,] | %11
[M:3/4][K:treble] [F,A,F]2 [F,A,F][F,A,F] [F,F][F,A,F] | [B,F]3 [B,DF]2[K:bass] D, | %13
 E,2 E, E,2 E, |[M:5/8] B,,3 z2 |[M:1/8] B,, |[M:3/4] C,2 F,F, F,F, | z2 A E,2 [E,B,E] | %18
 [F,B,D]2 [F,B,D] [F,A,F]2 [F,A,E] |[M:5/8] [B,,F,B,]-[B,,F,B,]- [B,,F,B,]3 |] %20
V:3
 x6 | x6 | x6 | [GB]2 [GB] G-[GB]G |[M:5/8] x5 |[M:1/8] x |[M:3/4] x6 | x6 | x6 |[M:5/8] x5 | %10
[M:1/8] x |[M:3/4] x6 | x6 | x6 |[M:5/8] x5 |[M:1/8] x |[M:3/4] x6 | D2 z [EGB]2 G | x6 | %19
[M:5/8] x5 |] %20
V:4
 x6 | x6 | x6 | x6 |[M:5/8] x5 |[M:1/8] x |[M:3/4] x6 | x6 | x6 |[M:5/8] x5 |[M:1/8] x | %11
[M:3/4][K:treble] x6 | x5[K:bass] x | x6 |[M:5/8] x5 |[M:1/8] x |[M:3/4] x6 | B,,4 z2 | x6 | %19
[M:5/8] x5 |] %20

